icons/Brisk Light/mimetypes/32/application-vnd.ms-powerpoint.template.macroenabled.12.svg

<?xml version="1.0" encoding="UTF-8" standalone="no"?>
<svg
   xmlns:dc="http://purl.org/dc/elements/1.1/"
   xmlns:cc="http://creativecommons.org/ns#"
   xmlns:rdf="http://www.w3.org/1999/02/22-rdf-syntax-ns#"
   xmlns:svg="http://www.w3.org/2000/svg"
   xmlns="http://www.w3.org/2000/svg"
   xmlns:xlink="http://www.w3.org/1999/xlink"
   xmlns:sodipodi="http://sodipodi.sourceforge.net/DTD/sodipodi-0.dtd"
   xmlns:inkscape="http://www.inkscape.org/namespaces/inkscape"
   width="32px"
   height="32px"
   viewBox="0 0 32 32"
   version="1.1"
   id="svg18"
   sodipodi:docname="application-vnd.ms-powerpoint.template.macroenabled.12.svg"
   inkscape:version="0.92.4 5da689c313, 2019-01-14">
  <metadata
     id="metadata22">
    <rdf:RDF>
      <cc:Work
         rdf:about="">
        <dc:format>image/svg+xml</dc:format>
        <dc:type
           rdf:resource="http://purl.org/dc/dcmitype/StillImage" />
        <dc:title>text-x-javascript</dc:title>
      </cc:Work>
    </rdf:RDF>
  </metadata>
  <sodipodi:namedview
     pagecolor="#1e2023"
     bordercolor="#666666"
     borderopacity="1"
     objecttolerance="10"
     gridtolerance="10"
     guidetolerance="10"
     inkscape:pageopacity="0"
     inkscape:pageshadow="2"
     inkscape:window-width="3840"
     inkscape:window-height="2012"
     id="namedview20"
     showgrid="true"
     inkscape:zoom="39.001358"
     inkscape:cx="9.1797247"
     inkscape:cy="16"
     inkscape:window-x="0"
     inkscape:window-y="0"
     inkscape:window-maximized="1"
     inkscape:current-layer="svg18">
    <inkscape:grid
       type="xygrid"
       id="grid820"
       color="#6e6e6e"
       opacity="0.1254902"
       empcolor="#6e6e6e"
       empopacity="0.25098039" />
  </sodipodi:namedview>
  <!-- Generator: Sketch 40.3 (33839) - http://www.bohemiancoding.com/sketch -->
  <title
     id="title2">text-x-javascript</title>
  <desc
     id="desc4">Created with Sketch.</desc>
  <defs
     id="defs6" />
  <g
     id="g846">
    <image
       width="27"
       height="30"
       preserveAspectRatio="none"
       xlink:href="data:image/png;base64,iVBORw0KGgoAAAANSUhEUgAAABsAAAAeCAYAAADdGWXmAAAABHNCSVQICAgIfAhkiAAAAWhJREFU SIntlmFPgzAQhp8Csm666P//k5rolgmD+qHvSYdDC8FvvEmzhPTuaa+X3euIctwqkC83+g1T8aU2 OeABqGbCLLZWfPlbfAkU2ngA9vreZwKdDrgHjoBPYP0UzAPPwKM2Nfc2/wF7EbBS7HV84CoJ8MAO uOgAueqUuCOWs1bOAJxSaHqzI7GcF+Cs4FxZ2e2WOwE7rWA3SzXuyhwFoAU+GBrmSHyWXusMdGPY Etm7NMB7AnwivmOr1a8BuwcsGEp60LdmTiPkAIOAJ2LpekFLwK0JS4EdsXTWZA7mtfgcoHXnzV/X f8AmtcE22AbbYMuVjhibQ0Wy5li6NI/FW84fMHNZnjiDSvJMz1gF0RZ45WsMOPaJnmHwNSy/WU20 BjVxtvUGM9vVEOeP1/dvo7IAVipHq7xXZAtsur5pszmjJaAUGIBP4FX5gz2g2e+awUsucVomG5pW sdZgdhIYOmgtpTY8fAHNF2XFmg89HgAAAABJRU5ErkJggg== "
       id="image1000-3"
       x="1.9997027"
       y="2.0371094" />
    <path
       d="M 25.499703,29.888563 H 5.4997025 c -1,0 -1,-1 -1,-1 v -24 c 0,0 0,-1 1,-1 H 19.499702 l 7.000001,7 v 18 c 0,1 -1,1 -1,1 z"
       id="path14361-6"
       inkscape:connector-curvature="0"
       style="fill:#bf411e;fill-opacity:1;fill-rule:evenodd;stroke:none;stroke-width:1" />
    <path
       id="path17"
       d="M 5.5019531 3.8886719 C 4.5050471 3.8886719 4.5019631 4.8805698 4.5019531 4.8867188 L 6.5 4.8867188 L 6.5 6.8867188 L 4.5019531 6.8867188 L 4.5019531 7.8867188 L 6.5 7.8867188 L 6.5 9.8867188 L 4.5019531 9.8867188 L 4.5019531 10.886719 L 6.5 10.886719 L 6.5 12.886719 L 4.5019531 12.886719 L 4.5019531 13.886719 L 6.5 13.886719 L 6.5 15.886719 L 4.5019531 15.886719 L 4.5019531 16.886719 L 6.5 16.886719 L 6.5 18.886719 L 4.5019531 18.886719 L 4.5019531 19.886719 L 6.5 19.886719 L 6.5 21.886719 L 4.5019531 21.886719 L 4.5019531 22.886719 L 6.5 22.886719 L 6.5 24.886719 L 4.5019531 24.886719 L 4.5019531 25.886719 L 6.5 25.886719 L 6.5 27.886719 L 4.5019531 27.886719 L 4.5019531 28.886719 L 6.5 28.886719 L 6.5 29.886719 L 7.5 29.886719 L 7.5 28.886719 L 9.5 28.886719 L 9.5 29.886719 L 10.5 29.886719 L 10.5 28.886719 L 12.5 28.886719 L 12.5 29.886719 L 13.5 29.886719 L 13.5 28.886719 L 15.5 28.886719 L 15.5 29.886719 L 16.5 29.886719 L 16.5 28.886719 L 18.5 28.886719 L 18.5 29.886719 L 19.5 29.886719 L 19.5 28.886719 L 21.5 28.886719 L 21.5 29.886719 L 22.5 29.886719 L 22.5 28.886719 L 24.5 28.886719 L 24.5 29.886719 L 25.5 29.886719 L 25.5 28.886719 L 26.5 28.886719 L 26.5 27.886719 L 25.5 27.886719 L 25.5 25.886719 L 26.5 25.886719 L 26.5 24.886719 L 25.5 24.886719 L 25.5 22.886719 L 26.5 22.886719 L 26.5 21.886719 L 25.5 21.886719 L 25.5 19.886719 L 26.5 19.886719 L 26.5 18.886719 L 25.5 18.886719 L 25.5 16.886719 L 26.5 16.886719 L 26.5 15.886719 L 25.5 15.886719 L 25.5 13.886719 L 26.5 13.886719 L 26.5 12.886719 L 25.5 12.886719 L 25.5 10.888672 L 24.5 10.888672 L 24.5 12.886719 L 22.5 12.886719 L 22.5 10.888672 L 21.5 10.888672 L 21.5 12.886719 L 19.5 12.886719 L 19.5 10.886719 L 20.484375 10.886719 C 19.529161 10.875143 19.502683 9.9393389 19.501953 9.8867188 L 19.5 9.8867188 L 19.5 9.8691406 L 19.5 7.8867188 L 19.5 6.8867188 L 19.5 4.8867188 L 19.5 3.8886719 L 5.5019531 3.8886719 z M 7.5 4.8867188 L 9.5 4.8867188 L 9.5 6.8867188 L 7.5 6.8867188 L 7.5 4.8867188 z M 10.5 4.8867188 L 12.5 4.8867188 L 12.5 6.8867188 L 10.5 6.8867188 L 10.5 4.8867188 z M 13.5 4.8867188 L 15.5 4.8867188 L 15.5 6.8867188 L 13.5 6.8867188 L 13.5 4.8867188 z M 16.5 4.8867188 L 18.5 4.8867188 L 18.5 6.8867188 L 16.5 6.8867188 L 16.5 4.8867188 z M 7.5 7.8867188 L 9.5 7.8867188 L 9.5 9.8867188 L 7.5 9.8867188 L 7.5 7.8867188 z M 10.5 7.8867188 L 12.5 7.8867188 L 12.5 9.8867188 L 10.5 9.8867188 L 10.5 7.8867188 z M 13.5 7.8867188 L 15.5 7.8867188 L 15.5 9.8867188 L 13.5 9.8867188 L 13.5 7.8867188 z M 16.5 7.8867188 L 18.5 7.8867188 L 18.5 9.8867188 L 16.5 9.8867188 L 16.5 7.8867188 z M 7.5 10.886719 L 9.5 10.886719 L 9.5 12.886719 L 7.5 12.886719 L 7.5 10.886719 z M 10.5 10.886719 L 12.5 10.886719 L 12.5 12.886719 L 10.5 12.886719 L 10.5 10.886719 z M 13.5 10.886719 L 15.5 10.886719 L 15.5 12.886719 L 13.5 12.886719 L 13.5 10.886719 z M 16.5 10.886719 L 18.5 10.886719 L 18.5 12.886719 L 16.5 12.886719 L 16.5 10.886719 z M 7.5 13.886719 L 9.5 13.886719 L 9.5 15.351562 L 10.5 15.351562 L 10.5 13.886719 L 12.5 13.886719 L 12.5 15.351562 L 13.5 15.351562 L 13.5 13.886719 L 15.5 13.886719 L 15.5 15.886719 L 15.447266 15.886719 L 15.447266 16.886719 L 15.5 16.886719 L 15.5 18.886719 L 15.447266 18.886719 L 15.447266 19.886719 L 15.5 19.886719 L 15.5 21.886719 L 15.447266 21.886719 L 15.447266 22.351562 L 8.4472656 22.351562 L 8.4472656 21.886719 L 7.5 21.886719 L 7.5 19.886719 L 8.4472656 19.886719 L 8.4472656 18.886719 L 7.5 18.886719 L 7.5 16.886719 L 8.4472656 16.886719 L 8.4472656 15.886719 L 7.5 15.886719 L 7.5 13.886719 z M 16.5 13.886719 L 18.5 13.886719 L 18.5 15.886719 L 16.5 15.886719 L 16.5 13.886719 z M 19.5 13.886719 L 21.5 13.886719 L 21.5 15.886719 L 19.5 15.886719 L 19.5 13.886719 z M 22.5 13.886719 L 24.5 13.886719 L 24.5 15.886719 L 22.5 15.886719 L 22.5 13.886719 z M 16.5 16.886719 L 18.5 16.886719 L 18.5 18.886719 L 16.5 18.886719 L 16.5 16.886719 z M 19.5 16.886719 L 21.5 16.886719 L 21.5 18.886719 L 19.5 18.886719 L 19.5 16.886719 z M 22.5 16.886719 L 24.5 16.886719 L 24.5 18.886719 L 22.5 18.886719 L 22.5 16.886719 z M 16.5 19.886719 L 18.5 19.886719 L 18.5 21.886719 L 16.5 21.886719 L 16.5 19.886719 z M 19.5 19.886719 L 21.5 19.886719 L 21.5 21.886719 L 19.5 21.886719 L 19.5 19.886719 z M 22.5 19.886719 L 24.5 19.886719 L 24.5 21.886719 L 22.5 21.886719 L 22.5 19.886719 z M 7.5 22.886719 L 9.5 22.886719 L 9.5 24.886719 L 7.5 24.886719 L 7.5 23.886719 L 7.5 22.886719 z M 10.5 22.886719 L 12.5 22.886719 L 12.5 24.886719 L 10.5 24.886719 L 10.5 23.886719 L 10.5 22.886719 z M 13.5 22.886719 L 15.5 22.886719 L 15.5 24.886719 L 13.5 24.886719 L 13.5 23.886719 L 13.5 22.886719 z M 16.5 22.886719 L 18.5 22.886719 L 18.5 24.886719 L 16.5 24.886719 L 16.5 23.886719 L 16.5 22.886719 z M 19.5 22.886719 L 21.5 22.886719 L 21.5 24.886719 L 19.5 24.886719 L 19.5 23.886719 L 19.5 22.886719 z M 22.5 22.886719 L 24.5 22.886719 L 24.5 24.886719 L 22.5 24.886719 L 22.5 23.886719 L 22.5 22.886719 z M 7.5 25.886719 L 9.5 25.886719 L 9.5 27.886719 L 7.5 27.886719 L 7.5 26.886719 L 7.5 25.886719 z M 10.5 25.886719 L 12.5 25.886719 L 12.5 27.886719 L 10.5 27.886719 L 10.5 26.886719 L 10.5 25.886719 z M 13.5 25.886719 L 15.5 25.886719 L 15.5 27.886719 L 13.5 27.886719 L 13.5 26.886719 L 13.5 25.886719 z M 16.5 25.886719 L 18.5 25.886719 L 18.5 27.886719 L 16.5 27.886719 L 16.5 26.886719 L 16.5 25.886719 z M 19.5 25.886719 L 21.5 25.886719 L 21.5 27.886719 L 19.5 27.886719 L 19.5 26.886719 L 19.5 25.886719 z M 22.5 25.886719 L 24.5 25.886719 L 24.5 27.886719 L 22.5 27.886719 L 22.5 26.886719 L 22.5 25.886719 z "
       style="color:#000000;opacity:0.15;color-interpolation:sRGB;color-interpolation-filters:linearRGB;fill:#ffffff;color-rendering:auto;image-rendering:auto;shape-rendering:auto;text-rendering:auto" />
    <path
       inkscape:connector-curvature="0"
       id="Combined-Shape-3-6"
       d="M 16,11.351562 8,12.703125 V 24 l 8,1.351562 z m 1,3 v 2.267579 c 0.294173,-0.170174 0.635713,-0.267579 1,-0.267579 v 2 h 2 c 0,1.10457 -0.89543,2 -2,2 -0.364287,0 -0.705827,-0.09741 -1,-0.267578 v 1.267578 h 4 v 1 h -4 v 1 h 4.5 c 0.276142,0 0.5,-0.223858 0.5,-0.5 v -8 c 0,-0.276142 -0.223858,-0.5 -0.5,-0.5 z m 2,1 c 1.10029,0 1.9931,0.894236 2,2 h -2 z m -8.326172,0.763672 h 1.742188 c 0.227099,0 0.427034,0.03743 0.601562,0.115235 0.17453,0.0778 0.320648,0.179573 0.439453,0.304687 0.118807,0.125114 0.209454,0.266273 0.271485,0.421875 0.06203,0.155605 0.09375,0.311045 0.09375,0.46875 0,0.16612 -0.03172,0.329522 -0.09375,0.488281 -0.06203,0.158759 -0.151628,0.298863 -0.271485,0.421876 -0.119858,0.123011 -0.266877,0.222226 -0.441406,0.296874 -0.174529,0.07464 -0.374614,0.111329 -0.599609,0.111329 h -0.998047 v 1.769531 h -0.744141 z m 0.744141,0.626954 v 1.378906 h 0.839843 c 0.153504,0 0.282632,-0.01984 0.386719,-0.05664 0.104081,-0.03679 0.187819,-0.08536 0.251953,-0.148437 0.06413,-0.06308 0.110284,-0.137496 0.138672,-0.222657 0.02839,-0.08517 0.04297,-0.176561 0.04297,-0.27539 0,-0.09673 -0.01894,-0.188426 -0.05469,-0.271485 -0.03576,-0.08305 -0.08685,-0.152962 -0.15625,-0.21289 -0.06939,-0.05994 -0.15583,-0.106981 -0.257813,-0.140625 -0.101996,-0.03364 -0.219088,-0.05078 -0.351563,-0.05078 z"
       style="fill:#e1e1e1;fill-opacity:1;fill-rule:evenodd;stroke:none;stroke-width:1" />
    <path
       d="m 20.499702,10.888563 c -1,0 -1,-1.018667 -1,-1.018667 v -6 l 7.000001,7.018667 z"
       id="path14363-7-3"
       inkscape:connector-curvature="0"
       style="opacity:0.5;fill:#ffffff;fill-opacity:1;fill-rule:evenodd;stroke:none;stroke-width:1" />
  </g>
</svg>

<?xml version="1.0" encoding="UTF-8" standalone="no"?>
<svg
   xmlns:dc="http://purl.org/dc/elements/1.1/"
   xmlns:cc="http://creativecommons.org/ns#"
   xmlns:rdf="http://www.w3.org/1999/02/22-rdf-syntax-ns#"
   xmlns:svg="http://www.w3.org/2000/svg"
   xmlns="http://www.w3.org/2000/svg"
   xmlns:xlink="http://www.w3.org/1999/xlink"
   xmlns:sodipodi="http://sodipodi.sourceforge.net/DTD/sodipodi-0.dtd"
   xmlns:inkscape="http://www.inkscape.org/namespaces/inkscape"
   width="32px"
   height="32px"
   viewBox="0 0 32 32"
   version="1.1"
   id="svg18"
   sodipodi:docname="application-vnd.ms-powerpoint.template.macroenabled.12.svg"
   inkscape:version="0.92.4 5da689c313, 2019-01-14">
  <metadata
     id="metadata22">
    <rdf:RDF>
      <cc:Work
         rdf:about="">
        <dc:format>image/svg+xml</dc:format>
        <dc:type
           rdf:resource="http://purl.org/dc/dcmitype/StillImage" />
        <dc:title>text-x-javascript</dc:title>
      </cc:Work>
    </rdf:RDF>
  </metadata>
  <sodipodi:namedview
     pagecolor="#1e2023"
     bordercolor="#666666"
     borderopacity="1"
     objecttolerance="10"
     gridtolerance="10"
     guidetolerance="10"
     inkscape:pageopacity="0"
     inkscape:pageshadow="2"
     inkscape:window-width="3840"
     inkscape:window-height="2012"
     id="namedview20"
     showgrid="true"
     inkscape:zoom="13.789063"
     inkscape:cx="-29.569498"
     inkscape:cy="12.892993"
     inkscape:window-x="0"
     inkscape:window-y="0"
     inkscape:window-maximized="1"
     inkscape:current-layer="svg18">
    <inkscape:grid
       type="xygrid"
       id="grid820"
       color="#6e6e6e"
       opacity="0.1254902"
       empcolor="#6e6e6e"
       empopacity="0.25098039" />
  </sodipodi:namedview>
  <!-- Generator: Sketch 40.3 (33839) - http://www.bohemiancoding.com/sketch -->
  <title
     id="title2">text-x-javascript</title>
  <desc
     id="desc4">Created with Sketch.</desc>
  <defs
     id="defs6" />
  <g
     id="g852">
    <image
       width="27"
       height="30"
       preserveAspectRatio="none"
       xlink:href="data:image/png;base64,iVBORw0KGgoAAAANSUhEUgAAABsAAAAeCAYAAADdGWXmAAAABHNCSVQICAgIfAhkiAAAAWhJREFU SIntlmFPgzAQhp8Csm666P//k5rolgmD+qHvSYdDC8FvvEmzhPTuaa+X3euIctwqkC83+g1T8aU2 OeABqGbCLLZWfPlbfAkU2ngA9vreZwKdDrgHjoBPYP0UzAPPwKM2Nfc2/wF7EbBS7HV84CoJ8MAO uOgAueqUuCOWs1bOAJxSaHqzI7GcF+Cs4FxZ2e2WOwE7rWA3SzXuyhwFoAU+GBrmSHyWXusMdGPY Etm7NMB7AnwivmOr1a8BuwcsGEp60LdmTiPkAIOAJ2LpekFLwK0JS4EdsXTWZA7mtfgcoHXnzV/X f8AmtcE22AbbYMuVjhibQ0Wy5li6NI/FW84fMHNZnjiDSvJMz1gF0RZ45WsMOPaJnmHwNSy/WU20 BjVxtvUGM9vVEOeP1/dvo7IAVipHq7xXZAtsur5pszmjJaAUGIBP4FX5gz2g2e+awUsucVomG5pW sdZgdhIYOmgtpTY8fAHNF2XFmg89HgAAAABJRU5ErkJggg== "
       id="image1000-3"
       x="1.9997027"
       y="2.0371094" />
    <path
       d="M 25.499703,29.888563 H 5.4997025 c -1,0 -1,-1 -1,-1 v -24 c 0,0 0,-1 1,-1 H 19.499702 l 7.000001,7 v 18 c 0,1 -1,1 -1,1 z"
       id="path14361-6"
       inkscape:connector-curvature="0"
       style="fill:#bf411e;fill-opacity:1;fill-rule:evenodd;stroke:none;stroke-width:1" />
    <path
       inkscape:connector-curvature="0"
       id="path17"
       d="m 5.501655,3.888563 c -0.996906,0 -0.99999,0.991897 -1,0.998046 h 1.998047 v 2 H 4.501655 v 1 h 1.998047 v 2 H 4.501655 v 1 h 1.998047 v 2 H 4.501655 v 1 h 1.998047 v 2 H 4.501655 v 1 h 1.998047 v 2 H 4.501655 v 1 h 1.998047 v 2 H 4.501655 v 1 h 1.998047 v 2 H 4.501655 v 1 h 1.998047 v 2 H 4.501655 v 1 h 1.998047 v 1 h 1 v -1 h 2 v 1 h 1 v -1 h 2 v 1 h 1 v -1 h 2 v 1 h 1 v -1 h 2 v 1 h 1 v -1 h 2 v 1 h 1 v -1 h 2 v 1 h 1 v -1 h 1 v -1 h -1 v -2 h 1 v -1 h -1 v -2 h 1 v -1 h -1 v -2 h 1 v -1 h -1 v -2 h 1 v -1 h -1 v -2 h 1 v -1 h -1 v -2 h 0.998047 l -0.998047,-1 -1,-0.998047 v 0.998047 h -2 v -2 h 0.998047 l -0.998047,-1 -1,-0.998047 v 0.998047 h -2 v -2 h 0.998047 L 19.499702,3.888563 Z m 1.998047,0.998046 h 2 v 2 h -2 z m 3,0 h 2 v 2 h -2 z m 3,0 h 2 v 2 h -2 z m 3,0 h 2 v 2 h -2 z m -9,3 h 2 v 2 h -2 z m 3,0 h 2 v 2 h -2 z m 3,0 h 2 v 2 h -2 z m 3,0 h 2 v 2 h -2 z m 3,0 h 2 v 2 h -2 z m -12,3.000001 h 2 v 2 h -2 z m 3,0 h 2 v 2 h -2 z m 3,0 h 2 v 2 h -2 z m 3,0 h 2 v 2 h -2 z m 3,0 h 2 v 2 h -2 z m 3,0 h 2 v 2 h -2 z m -15,3 h 2 v 1.464843 h 1 V 13.88661 h 2 v 1.464843 h 1 V 13.88661 h 2 v 2 h -0.05274 v 1 h 0.05274 v 2 h -0.05274 v 1 h 0.05274 v 2 h -0.05274 v 0.464843 h -7 V 21.88661 h -0.94726 v -2 h 0.947265 v -1 H 7.499702 v -2 h 0.947265 v -1 H 7.499702 Z m 9,0 h 2 v 2 h -2 z m 3,0 h 2 v 2 h -2 z m 3,0 h 2 v 2 h -2 z m -6,3 h 2 v 2 h -2 z m 3,0 h 2 v 2 h -2 z m 3,0 h 2 v 2 h -2 z m -6,3 h 2 v 2 h -2 z m 3,0 h 2 v 2 h -2 z m 3,0 h 2 v 2 h -2 z m -15,3 h 2 v 2 h -2 v -1 z m 3,0 h 2 v 2 h -2 v -1 z m 3,0 h 2 v 2 h -2 v -1 z m 3,0 h 2 v 2 h -2 v -1 z m 3,0 h 2 v 2 h -2 v -1 z m 3,0 h 2 v 2 h -2 v -1 z m -15,2.999999 h 2 v 2 h -2 v -1 z m 3,0 h 2 v 2 h -2 v -1 z m 3,0 h 2 v 2 h -2 v -1 z m 3,0 h 2 v 2 h -2 v -1 z m 3,0 h 2 v 2 h -2 v -1 z m 3,0 h 2 v 2 h -2 v -1 z"
       style="color:#000000;opacity:0.15;color-interpolation:sRGB;color-interpolation-filters:linearRGB;fill:#ffffff;color-rendering:auto;image-rendering:auto;shape-rendering:auto;text-rendering:auto" />
    <path
       inkscape:connector-curvature="0"
       id="Combined-Shape-3-6"
       d="M 16,11.351562 8,12.703125 V 24 l 8,1.351562 z m 1,3 v 2.267579 c 0.294173,-0.170174 0.635713,-0.267579 1,-0.267579 v 2 h 2 c 0,1.10457 -0.89543,2 -2,2 -0.364287,0 -0.705827,-0.09741 -1,-0.267578 v 1.267578 h 4 v 1 h -4 v 1 h 4.5 c 0.276142,0 0.5,-0.223858 0.5,-0.5 v -8 c 0,-0.276142 -0.223858,-0.5 -0.5,-0.5 z m 2,1 c 1.10029,0 1.9931,0.894236 2,2 h -2 z m -8.326172,0.763672 h 1.742188 c 0.227099,0 0.427034,0.03743 0.601562,0.115235 0.17453,0.0778 0.320648,0.179573 0.439453,0.304687 0.118807,0.125114 0.209454,0.266273 0.271485,0.421875 0.06203,0.155605 0.09375,0.311045 0.09375,0.46875 0,0.16612 -0.03172,0.329522 -0.09375,0.488281 -0.06203,0.158759 -0.151628,0.298863 -0.271485,0.421876 -0.119858,0.123011 -0.266877,0.222226 -0.441406,0.296874 -0.174529,0.07464 -0.374614,0.111329 -0.599609,0.111329 h -0.998047 v 1.769531 h -0.744141 z m 0.744141,0.626954 v 1.378906 h 0.839843 c 0.153504,0 0.282632,-0.01984 0.386719,-0.05664 0.104081,-0.03679 0.187819,-0.08536 0.251953,-0.148437 0.06413,-0.06308 0.110284,-0.137496 0.138672,-0.222657 0.02839,-0.08517 0.04297,-0.176561 0.04297,-0.27539 0,-0.09673 -0.01894,-0.188426 -0.05469,-0.271485 -0.03576,-0.08305 -0.08685,-0.152962 -0.15625,-0.21289 -0.06939,-0.05994 -0.15583,-0.106981 -0.257813,-0.140625 -0.101996,-0.03364 -0.219088,-0.05078 -0.351563,-0.05078 z"
       style="fill:#e1e1e1;fill-rule:evenodd;stroke:none;stroke-width:1;fill-opacity:1" />
    <path
       d="m 20.499702,10.888563 c -1,0 -1,-1.018667 -1,-1.018667 v -6 l 7.000001,7.018667 z"
       id="path14363-7"
       inkscape:connector-curvature="0"
       style="opacity:1;fill:#dfa08f;fill-opacity:1;fill-rule:evenodd;stroke:none;stroke-width:1" />
  </g>
</svg>
